X: 1
T: Schottisch fr\aan Idre II
O: efter Storbo-J\"ons
B: Musik till Svenska Folkdanser, Ingvar Norman, 1971, p.39
N: Sometimes played with the entire 2nd part in D minor.
M: 4/4
L: 1/8
K: D
|: "D"D2 FA d2 d2 | D2 FA de dc | "A7"ef ec A2 Bc |1,3 "D"d2 cB "A7"AG FE :|2,4 "D"d2 d2 d4 :|
|: "D"a2 a2 "A7"g2 eg | "D"f2 d2 "A7"e4 | "Dm"=f2 ag Tf2 ed |1,3 "A7"cd ed c2 A2 :|2,4 "A7"cd ec "D(m)"d4 :|
